libs/icons/src/svg/round-dollar.svg

<svg width="16" height="16" viewBox="0 0 16 16" fill="none" xmlns="http://www.w3.org/2000/svg">
<g clip-path="url(#clip0_3_3353)">
<path fill-rule="evenodd" clip-rule="evenodd" d="M8 1.33333C4.3181 1.33333 1.33333 4.3181 1.33333 8C1.33333 11.6819 4.3181 14.6667 8 14.6667C11.6819 14.6667 14.6667 11.6819 14.6667 8C14.6667 4.3181 11.6819 1.33333 8 1.33333ZM0 8C0 3.58172 3.58172 0 8 0C12.4183 0 16 3.58172 16 8C16 12.4183 12.4183 16 8 16C3.58172 16 0 12.4183 0 8ZM8 2.66667C8.36819 2.66667 8.66667 2.96515 8.66667 3.33334V3.69146C9.41473 3.77704 10.1236 3.98253 10.5711 4.22852C10.8938 4.40587 11.0116 4.81121 10.8342 5.13387C10.6569 5.45653 10.2516 5.57433 9.92889 5.39697C9.67447 5.25713 9.19949 5.11151 8.66667 5.03546V7.34811C9.04518 7.48108 9.44217 7.64068 9.77372 7.85433C10.3136 8.20223 10.7547 8.74123 10.7547 9.56741C10.7547 10.2658 10.5209 10.845 10.0766 11.265C9.68287 11.6373 9.1769 11.8343 8.66667 11.9276V12.6667C8.66667 13.0349 8.36819 13.3333 8 13.3333C7.63181 13.3333 7.33333 13.0349 7.33333 12.6667V11.9816C6.56366 11.9232 5.77679 11.7328 5.10706 11.4912C4.76073 11.3662 4.58129 10.9841 4.70627 10.6378C4.83124 10.2915 5.21331 10.112 5.55964 10.237C6.12548 10.4412 6.75055 10.5887 7.33333 10.6435V8.30434C6.90026 8.15066 6.43253 7.95674 6.04656 7.67373C5.49796 7.27147 5.09869 6.67851 5.09869 5.82141C5.09869 5.09082 5.41873 4.53266 5.92999 4.17224C6.34254 3.88141 6.8461 3.74106 7.33333 3.68312V3.33334C7.33333 2.96515 7.63181 2.66667 8 2.66667ZM7.33333 5.03005C7.05705 5.07818 6.84339 5.15967 6.69823 5.262C6.53747 5.37533 6.43202 5.529 6.43202 5.82141C6.43202 6.18897 6.57308 6.40644 6.83498 6.59847C6.97443 6.70072 7.14092 6.78966 7.33333 6.87369V5.03005ZM8.66667 8.77574V10.5592C8.8868 10.4933 9.04896 10.4017 9.16068 10.2961C9.30394 10.1607 9.42135 9.94969 9.42135 9.56741C9.42135 9.31293 9.32211 9.14951 9.05148 8.97511C8.93902 8.90264 8.81083 8.83778 8.66667 8.77574Z" fill="#202327"/>
</g>
<defs>
<clipPath id="clip0_3_3353">
<rect width="16" height="16" fill="white"/>
</clipPath>
</defs>
</svg>

<svg xmlns="http://www.w3.org/2000/svg" viewBox="0 0 16 16" class="sageicon"><path fill-rule="evenodd" d="M8 1.333a6.667 6.667 0 1 0 0 13.334A6.667 6.667 0 0 0 8 1.333ZM0 8a8 8 0 1 1 16 0A8 8 0 0 1 0 8Zm8-5.333c.368 0 .667.298.667.666v.358c.748.086 1.457.292 1.904.538a.667.667 0 1 1-.642 1.168c-.255-.14-.73-.285-1.262-.362v2.313c.378.133.775.293 1.107.506.54.348.98.887.98 1.713 0 .699-.233 1.278-.677 1.698-.394.372-.9.57-1.41.663v.739a.667.667 0 0 1-1.334 0v-.685a8.678 8.678 0 0 1-2.226-.49.667.667 0 0 1 .453-1.255c.565.204 1.19.352 1.773.406V8.304c-.433-.153-.9-.347-1.286-.63-.549-.403-.948-.995-.948-1.853 0-.73.32-1.288.831-1.649.413-.29.916-.43 1.403-.489v-.35c0-.368.299-.666.667-.666ZM7.333 5.03c-.276.048-.49.13-.635.232-.16.113-.266.267-.266.56 0 .367.141.584.403.776.14.103.306.192.498.276V5.03Zm1.334 3.746v1.783c.22-.066.382-.157.494-.263.143-.135.26-.346.26-.729 0-.254-.099-.417-.37-.592a2.626 2.626 0 0 0-.384-.2Z"/></svg>
